src/assets/icons/ico_design.svg

<?xml version="1.0" encoding="utf-8"?>
<!-- Generator: Adobe Illustrator 26.0.1, SVG Export Plug-In . SVG Version: 6.00 Build 0)  -->
<svg version="1.1" id="Layer_1" xmlns="http://www.w3.org/2000/svg" xmlns:xlink="http://www.w3.org/1999/xlink" x="0px" y="0px"
	 viewBox="0 0 64 64" style="enable-background:new 0 0 64 64;" xml:space="preserve">
<style type="text/css">
	.st0{fill:#43BBC4;}
</style>
<path class="st0" d="M13.1846,47c0.8652,1.0645,2.1475,1.6753,3.5186,1.6753h33.2031c1.0605,0,1.9229-0.8628,1.9229-1.9233V20.4414
	c0-1.0605-0.8623-1.9233-1.9229-1.9233h-28.895c-0.5753-1.8431-2.2776-3.1934-4.3082-3.1934c-2.499,0-4.5322,2.0332-4.5322,4.5327
	v24.2852c0,0.0065,0.0034,0.0118,0.0037,0.0182C12.1801,45.1933,12.5278,46.192,13.1846,47z M49.9062,19.5181
	c0.5088,0,0.9229,0.4141,0.9229,0.9233V46.752c0,0.5093-0.4141,0.9233-0.9229,0.9233H16.7031c-1.0684,0-2.0674-0.4761-2.7422-1.3062
	c-0.6748-0.8296-0.9336-1.9204-0.71-2.9922c0.2773-1.3301,1.3564-2.4097,2.6875-2.687c1.0703-0.2227,2.1621,0.0352,2.9922,0.71
	s1.3057,1.6743,1.3057,2.7427c0,0.2764,0.2236,0.5,0.5,0.5s0.5-0.2236,0.5-0.5V19.8574c0-0.1162-0.0257-0.2253-0.0343-0.3394
	H49.9062z M16.7031,16.3247c1.9482,0,3.5332,1.585,3.5332,3.5327v21.4478c-0.1989-0.247-0.423-0.4766-0.6748-0.6812
	c-1.0654-0.8657-2.4629-1.1987-3.8271-0.9131c-1.0212,0.2127-1.9219,0.7978-2.5635,1.5944V19.8574
	C13.1709,17.9097,14.7559,16.3247,16.7031,16.3247z"/>
<path class="st0" d="M46.1328,28.6558c0-1.0605-0.8623-1.9233-1.9229-1.9233h-4.13c-0.0051-0.0002-0.0093-0.0029-0.0145-0.0029
	s-0.0094,0.0027-0.0145,0.0029h-9.0538c-1.0605,0-1.9238,0.8628-1.9238,1.9233v12.729c0,1.0601,0.8633,1.9229,1.9238,1.9229h6.5944
	c0.0043,0.0001,0.0078,0.0024,0.0121,0.0024h6.6094c1.0605,0,1.9238-0.8628,1.9238-1.9229v-3.6626
	c0-0.0069-0.0036-0.0126-0.0039-0.0194V28.6558z M44.2129,42.3101h-6.5944c-0.0043-0.0001-0.0078-0.0024-0.0121-0.0024h-6.6094
	c-0.5176,0-0.9238-0.4053-0.9238-0.9229V31.75h4.417c0.2764,0,0.5-0.2236,0.5-0.5v-2.0103c0-0.2764-0.2236-0.5-0.5-0.5
	s-0.5,0.2236-0.5,0.5V30.75h-3.917v-2.0942c0-0.5176,0.4062-0.9233,0.9238-0.9233h8.5684v5.0679c0,0.2764,0.2236,0.5,0.5,0.5
	s0.5-0.2236,0.5-0.5v-5.0679H44.21c0.5176,0,0.9229,0.4058,0.9229,0.9233v8.8921h-4.5674v-1.9824c0-0.2764-0.2236-0.5-0.5-0.5
	s-0.5,0.2236-0.5,0.5v1.9824H32.877c-0.2764,0-0.5,0.2236-0.5,0.5s0.2236,0.5,0.5,0.5h4.2266v2.2998c0,0.2764,0.2236,0.5,0.5,0.5
	s0.5-0.2236,0.5-0.5v-2.2998h7.0332v2.8394C45.1367,41.896,44.7227,42.3101,44.2129,42.3101z"/>
<path class="st0" d="M29.0997,23.7112c0.0034,0.0117-0.0024,0.0237,0.0018,0.0353c0.0024,0.0063,0.0092,0.009,0.0118,0.0151
	c0.0288,0.0696,0.0689,0.1352,0.1298,0.188l1.334,1.1562c0.0947,0.082,0.2109,0.1221,0.3271,0.1221
	c0.1396,0,0.2793-0.0586,0.3779-0.1724c0.1807-0.209,0.1582-0.5244-0.0508-0.7056l-0.3211-0.2783h4.2313h4.9238h4.2305
	l-0.3214,0.2783c-0.209,0.1807-0.2314,0.4966-0.0508,0.7051c0.0986,0.1143,0.2383,0.1729,0.3779,0.1729
	c0.1162,0,0.2324-0.04,0.3271-0.1221l1.335-1.1562c0.061-0.0527,0.1011-0.1183,0.1299-0.1881
	c0.0026-0.0061,0.0094-0.0088,0.0117-0.015c0.0043-0.0115-0.0015-0.0234,0.0018-0.035c0.0227-0.0768,0.0275-0.1555,0.0123-0.2343
	c-0.0026-0.0135-0.001-0.0261-0.0048-0.0394c-0.0192-0.0691-0.0501-0.1355-0.1002-0.1932
	c-0.0107-0.0124-0.0256-0.0178-0.0372-0.0288c-0.0065-0.0062-0.0068-0.0161-0.0136-0.022l-1.335-1.1562
	c-0.209-0.1807-0.5244-0.1582-0.7051,0.0508c-0.1807,0.2085-0.1582,0.5244,0.0508,0.7051l0.3213,0.2783h-4.2305h-4.9238h-4.2314
	l0.3213-0.2783c0.209-0.1812,0.2314-0.4966,0.0508-0.7056c-0.1807-0.2085-0.4971-0.231-0.7051-0.0503l-1.334,1.1562
	c-0.0066,0.0057-0.0068,0.0152-0.0131,0.0212c-0.0118,0.0112-0.0269,0.0165-0.0377,0.0291
	c-0.0501,0.058-0.0809,0.1246-0.1002,0.1938c-0.0037,0.0132-0.0022,0.0258-0.0048,0.0391
	C29.0722,23.5558,29.0771,23.6344,29.0997,23.7112z"/>
<path class="st0" d="M25.1406,37.7246v4.2305l-0.2783-0.3213c-0.1816-0.209-0.4971-0.2305-0.7051-0.0503
	c-0.209,0.1812-0.2314,0.4966-0.0508,0.7056l1.1562,1.334c0.0079,0.0092,0.0197,0.0125,0.0281,0.021
	c0.0089,0.009,0.0129,0.0209,0.0226,0.0293c0.0243,0.0211,0.053,0.0315,0.0798,0.0471c0.0198,0.0116,0.0372,0.0258,0.0583,0.0344
	c0.0609,0.0251,0.1245,0.0406,0.1891,0.0406c0.0586,0,0.1182-0.0103,0.1748-0.0317c0.004-0.0015,0.0057-0.006,0.0097-0.0076
	c0.072-0.0286,0.1393-0.0707,0.1934-0.1331l1.1562-1.334c0.1807-0.209,0.1582-0.5244-0.0508-0.7056
	c-0.209-0.1802-0.5254-0.1587-0.7051,0.0503l-0.2783,0.3211v-4.2303v-4.9243V28.57l0.2783,0.3211
	c0.0986,0.1138,0.2383,0.1724,0.3779,0.1724c0.1162,0,0.2324-0.04,0.3271-0.1221c0.209-0.1812,0.2314-0.4966,0.0508-0.7056
	l-1.1562-1.334c-0.0531-0.0613-0.1191-0.1013-0.1894-0.1299c-0.0056-0.0023-0.0081-0.0085-0.0137-0.0107
	c-0.0106-0.004-0.0217,0.0015-0.0324-0.0018c-0.0773-0.0231-0.1566-0.0282-0.236-0.0129c-0.0136,0.0026-0.0262,0.0011-0.0396,0.0048
	c-0.0693,0.0192-0.1359,0.05-0.1939,0.1002c-0.0121,0.0104-0.0173,0.025-0.0281,0.0363c-0.0064,0.0066-0.0166,0.007-0.0227,0.014
	l-1.1562,1.334c-0.1807,0.209-0.1582,0.5244,0.0508,0.7056c0.208,0.1807,0.5234,0.1582,0.7051-0.0503l0.2783-0.3213v4.2305V37.7246z
	"/>
</svg>

<?xml version="1.0" encoding="UTF-8" standalone="no"?>
<!DOCTYPE svg PUBLIC "-//W3C//DTD SVG 1.1//EN" "http://www.w3.org/Graphics/SVG/1.1/DTD/svg11.dtd">
<svg width="100%" height="100%" viewBox="0 0 65 65" version="1.1" xmlns="http://www.w3.org/2000/svg" xmlns:xlink="http://www.w3.org/1999/xlink" xml:space="preserve" xmlns:serif="http://www.serif.com/" style="fill-rule:evenodd;clip-rule:evenodd;stroke-linejoin:round;stroke-miterlimit:2;">
    <g transform="matrix(1,0,0,1,-73,-79)">
        <g transform="matrix(0.0625,0,0,0.0833333,73.113,79.8764)">
            <rect id="ico_design" x="0" y="0" width="1024" height="768" style="fill:none;"/>
            <g id="ico_design1" serif:id="ico_design">
                <g id="ico_design.svg" transform="matrix(16,0,0,12,510.232,384)">
                    <g transform="matrix(1,0,0,1,-32,-32)">
                        <g>
                            <path d="M13.185,47C14.05,48.065 15.332,48.675 16.703,48.675L49.906,48.675C50.967,48.675 51.829,47.813 51.829,46.752L51.829,20.441C51.829,19.381 50.967,18.518 49.906,18.518L21.011,18.518C20.436,16.675 18.734,15.325 16.703,15.325C14.204,15.325 12.171,17.358 12.171,19.857L12.171,44.143C12.171,44.149 12.174,44.154 12.175,44.161C12.18,45.193 12.528,46.192 13.185,47ZM49.906,19.518C50.415,19.518 50.829,19.932 50.829,20.441L50.829,46.752C50.829,47.261 50.415,47.675 49.906,47.675L16.703,47.675C15.635,47.675 14.636,47.199 13.961,46.369C13.286,45.54 13.027,44.449 13.251,43.377C13.528,42.047 14.607,40.967 15.938,40.69C17.009,40.467 18.1,40.725 18.931,41.4C19.761,42.075 20.236,43.074 20.236,44.143C20.236,44.419 20.46,44.643 20.736,44.643C21.013,44.643 21.236,44.419 21.236,44.143L21.236,19.857C21.236,19.741 21.211,19.632 21.202,19.518L49.906,19.518L49.906,19.518ZM16.703,16.325C18.651,16.325 20.236,17.91 20.236,19.857L20.236,41.305C20.037,41.058 19.813,40.829 19.562,40.624C18.496,39.758 17.099,39.425 15.734,39.711C14.713,39.924 13.813,40.509 13.171,41.305L13.171,19.857C13.171,17.91 14.756,16.325 16.703,16.325Z" style="fill:rgb(26,91,87);fill-rule:nonzero;"/>
                            <path d="M46.133,28.656C46.133,27.595 45.271,26.732 44.21,26.732L40.08,26.732C40.075,26.732 40.071,26.73 40.065,26.73C40.06,26.73 40.056,26.732 40.051,26.732L30.997,26.732C29.937,26.732 29.073,27.595 29.073,28.656L29.073,41.385C29.073,42.445 29.937,43.308 30.997,43.308L37.592,43.308C37.596,43.308 37.599,43.31 37.604,43.31L44.213,43.31C45.274,43.31 46.137,42.447 46.137,41.387L46.137,37.725C46.137,37.718 46.133,37.712 46.133,37.705L46.133,28.656L46.133,28.656ZM44.213,42.31L37.619,42.31C37.614,42.31 37.611,42.308 37.606,42.308L30.997,42.308C30.479,42.308 30.073,41.902 30.073,41.385L30.073,31.75L34.49,31.75C34.767,31.75 34.99,31.526 34.99,31.25L34.99,29.24C34.99,28.963 34.767,28.74 34.49,28.74C34.214,28.74 33.99,28.963 33.99,29.24L33.99,30.75L30.073,30.75L30.073,28.656C30.073,28.138 30.479,27.732 30.997,27.732L39.565,27.732L39.565,32.8C39.565,33.077 39.789,33.3 40.065,33.3C40.342,33.3 40.565,33.077 40.565,32.8L40.565,27.732L44.21,27.732C44.728,27.732 45.133,28.138 45.133,28.656L45.133,37.548L40.566,37.548L40.566,35.566C40.566,35.289 40.342,35.066 40.066,35.066C39.789,35.066 39.566,35.289 39.566,35.566L39.566,37.548L32.877,37.548C32.601,37.548 32.377,37.771 32.377,38.048C32.377,38.324 32.601,38.548 32.877,38.548L37.104,38.548L37.104,40.848C37.104,41.124 37.327,41.348 37.604,41.348C37.88,41.348 38.104,41.124 38.104,40.848L38.104,38.548L45.137,38.548L45.137,41.387C45.137,41.896 44.723,42.31 44.213,42.31Z" style="fill:rgb(26,91,87);fill-rule:nonzero;"/>
                            <path d="M29.1,23.711C29.103,23.723 29.097,23.735 29.101,23.747C29.104,23.753 29.111,23.756 29.113,23.762C29.142,23.831 29.182,23.897 29.243,23.95L30.577,25.106C30.672,25.188 30.788,25.228 30.904,25.228C31.044,25.228 31.183,25.169 31.282,25.055C31.463,24.847 31.44,24.531 31.231,24.35L30.91,24.072L44.296,24.072L43.974,24.35C43.765,24.531 43.743,24.847 43.924,25.055C44.022,25.169 44.162,25.228 44.301,25.228C44.418,25.228 44.534,25.188 44.629,25.106L45.964,23.95C46.025,23.897 46.065,23.831 46.094,23.762C46.096,23.755 46.103,23.753 46.105,23.747C46.109,23.735 46.104,23.723 46.107,23.712C46.13,23.635 46.135,23.556 46.119,23.477C46.117,23.464 46.118,23.451 46.115,23.438C46.095,23.369 46.064,23.302 46.014,23.245C46.004,23.232 45.989,23.227 45.977,23.216C45.971,23.21 45.97,23.2 45.964,23.194L44.629,22.038C44.42,21.857 44.104,21.879 43.923,22.088C43.743,22.297 43.765,22.613 43.974,22.794L44.296,23.072L30.91,23.072L31.231,22.794C31.44,22.612 31.463,22.297 31.282,22.088C31.101,21.879 30.785,21.857 30.577,22.038L29.243,23.194C29.236,23.2 29.236,23.209 29.23,23.215C29.218,23.226 29.203,23.232 29.192,23.244C29.142,23.302 29.111,23.369 29.092,23.438C29.088,23.451 29.09,23.464 29.087,23.477C29.072,23.556 29.077,23.634 29.1,23.711Z" style="fill:rgb(26,91,87);fill-rule:nonzero;"/>
                            <path d="M25.141,37.725L25.141,41.955L24.862,41.634C24.681,41.425 24.365,41.403 24.157,41.584C23.948,41.765 23.926,42.08 24.106,42.289L25.263,43.623C25.27,43.632 25.282,43.636 25.291,43.644C25.3,43.653 25.304,43.665 25.313,43.673C25.338,43.695 25.366,43.705 25.393,43.721C25.413,43.732 25.43,43.746 25.451,43.755C25.512,43.78 25.576,43.795 25.64,43.795C25.699,43.795 25.759,43.785 25.815,43.764C25.819,43.762 25.821,43.758 25.825,43.756C25.897,43.728 25.964,43.686 26.018,43.623L27.175,42.289C27.355,42.08 27.333,41.765 27.124,41.584C26.915,41.403 26.598,41.425 26.419,41.634L26.14,41.955L26.14,28.57L26.419,28.891C26.517,29.005 26.657,29.064 26.797,29.064C26.913,29.064 27.029,29.024 27.124,28.941C27.333,28.76 27.355,28.445 27.174,28.236L26.018,26.902C25.965,26.841 25.899,26.801 25.829,26.772C25.823,26.77 25.821,26.763 25.815,26.761C25.805,26.757 25.793,26.763 25.783,26.759C25.705,26.736 25.626,26.731 25.547,26.747C25.533,26.749 25.521,26.748 25.507,26.751C25.438,26.771 25.371,26.801 25.313,26.852C25.301,26.862 25.296,26.877 25.285,26.888C25.279,26.894 25.269,26.895 25.262,26.902L24.106,28.236C23.926,28.445 23.948,28.76 24.157,28.941C24.365,29.122 24.68,29.1 24.862,28.891L25.141,28.57L25.141,37.725L25.141,37.725Z" style="fill:rgb(26,91,87);fill-rule:nonzero;"/>
                        </g>
                    </g>
                </g>
            </g>
        </g>
    </g>
</svg>
